X:1
T:Glaston, 10.10.10.10
T:Glaston, 10.10.10.10
T:Mrs. Evans, probably early 20th Century
T:Public Domain Courtesy of the Cyber Hymnal™
C:Mrs. Evans, probably early 20th Century
Z:Public Domain
Z:Courtesy of the Cyber Hymnal™
%%score ( 1 2 ) ( 3 4 )
L:1/8
Q:1/4=118
M:4/4
K:F
V:1 treble 
V:2 treble 
V:3 bass 
V:4 bass 
V:1
 C4 [CA]2 [CF]2 | [B,E]6 [B,D]2 | C2 [CE]2 [EG]2 [EB]2 | [FA]8 | [Gc]4 [Fc]2 [Ec]2 | [Fc]4 [FA]4 | %6
 [FA]2 [FA]2 [FG]2 [FA]2 | [EG]8 | C4 [CA]2 [CF]2 | [B,E]4 [B,D]2 C2 | [Cc]2 [Fc]2 [E^c]2 [Ec]2 | %11
 [Ad]8 | [^Ge]4 [Ed]2 [Ed]2 | c4 B4 | [FA]2 [FA]2 [EA]2 [EG]2 | F8 |] %16
V:2
 C4 x4 | x8 | C2 x6 | x8 | x8 | x8 | x8 | x8 | C4 x4 | x6 C2 | x8 | x8 | x8 | (E2 D2) (D2 G2) | %14
 x8 | F8 |] %16
V:3
 [F,A,]4 [F,A,]2 [F,A,]2 | [G,B,]6 [F,G,]2 | [E,G,]2 [E,G,]2 [C,C]2 [C,C]2 | [F,C]8 | %4
 [B,C]4 [A,C]2 [G,B,]2 | [F,A,]4 [E,C]4 | [D,D]2 [D,C]2 [G,=B,]2 [G,B,]2 | (C4 B,4) | %8
 [F,A,]4 F,2 [F,A,]2 | [C,G,]4 F,2 E,2 | [A,,F,]2 [A,C]2 [G,B,]2 [G,B,]2 | [F,A,]8 | %12
 [E,=B,]4 [^G,B,]2 [G,B,]2 | A,4 ([G,B,]2 [B,,D]2) | [C,C]2 [D,=B,]2 [C,C]2 [C,_B,]2 | [F,A,]8 |] %16
V:4
 x8 | x8 | x8 | x8 | x8 | x8 | x8 | C,8 | x4 F,2 x2 | x4 B,,4 | x8 | x8 | x8 | (A,2 ^F,2) x4 | x8 | %15
 x8 |] %16

